X:100
T: Pat O'Beirne's Favorite
T: Rogha Pheait U\'i Bheirn
S: B.Breathnach: "Ceol Rince na hEireann" II/24
Z: B.Black
L: 1/8
M: 6/8
R: jig
K: G
e|dBG AGE|DGE DED|GAB AGA|BAG ABc|
dBG AGE|DGE DED|GAB AGA|BGG G2A|
dBG AGE|DGE DE/D/E|GGG AGA|BAG ABc|
dBG AGE|DGE DE/D/E|GGG AGA|BGG G2||
A|Bdd Bee|Bdd dBG|Bdd Bee|dBG A2c|
Bdd Bee|Bdd dBG|GAB AGA|BGG G2A|
Bdd Bee|Bdd dBG|Bdd g2e|dBG A3|
Bdd Bee|Bdd dBA|G2B AGA|BGG g2||

